assets/icons/fingerprint-filled.svg

<?xml version="1.0" encoding="UTF-8" standalone="no"?>
<svg
   viewBox="0 0 24 24"
   height="24"
   id="svg7384"
   version="1.1"
   width="24"
   sodipodi:docname="fingerprint-filled.svg"
   inkscape:version="1.2 (1:1.2.1+202207142221+cd75a1ee6d)"
   xmlns:inkscape="http://www.inkscape.org/namespaces/inkscape"
   xmlns:sodipodi="http://sodipodi.sourceforge.net/DTD/sodipodi-0.dtd"
   xmlns="http://www.w3.org/2000/svg"
   xmlns:svg="http://www.w3.org/2000/svg"
   xmlns:rdf="http://www.w3.org/1999/02/22-rdf-syntax-ns#"
   xmlns:cc="http://creativecommons.org/ns#"
   xmlns:dc="http://purl.org/dc/elements/1.1/">
  <sodipodi:namedview
     id="namedview30"
     pagecolor="#ffffff"
     bordercolor="#666666"
     borderopacity="1.0"
     inkscape:pageshadow="2"
     inkscape:pageopacity="0.0"
     inkscape:pagecheckerboard="0"
     showgrid="true"
     inkscape:zoom="14"
     inkscape:cx="-14.678571"
     inkscape:cy="13.714286"
     inkscape:window-width="1920"
     inkscape:window-height="1043"
     inkscape:window-x="0"
     inkscape:window-y="0"
     inkscape:window-maximized="1"
     inkscape:current-layer="svg7384"
     inkscape:snap-page="true"
     inkscape:snap-center="true"
     inkscape:showpageshadow="2"
     inkscape:deskcolor="#d1d1d1">
    <inkscape:grid
       type="xygrid"
       id="grid14" />
    <inkscape:grid
       type="xygrid"
       id="grid831"
       dotted="true"
       spacingx="0.5"
       spacingy="0.5"
       empspacing="10" />
  </sodipodi:namedview>
  <metadata
     id="metadata20854">
    <rdf:RDF>
      <cc:Work
         rdf:about="">
        <dc:format>image/svg+xml</dc:format>
        <dc:type
           rdf:resource="http://purl.org/dc/dcmitype/StillImage" />
      </cc:Work>
    </rdf:RDF>
  </metadata>
  <defs
     id="defs7386">
    <linearGradient
       id="linearGradient5606"
       inkscape:swatch="solid">
      <stop
         id="stop5608"
         offset="0"
         style="stop-color:#000000;stop-opacity:1;" />
    </linearGradient>
    <linearGradient
       id="linearGradient4526"
       inkscape:swatch="solid">
      <stop
         id="stop4528"
         offset="0"
         style="stop-color:#ffffff;stop-opacity:1;" />
    </linearGradient>
    <linearGradient
       id="linearGradient3600-4"
       inkscape:swatch="gradient">
      <stop
         id="stop3602-7"
         offset="0"
         style="stop-color:#f4f4f4;stop-opacity:1" />
      <stop
         id="stop3604-6"
         offset="1"
         style="stop-color:#dbdbdb;stop-opacity:1" />
    </linearGradient>
  </defs>
  <path
     id="path524"
     style="fill:#808080;fill-rule:evenodd;stroke-width:2;stroke-linecap:square;stroke-linejoin:round"
     d="M 11.5 2 C 6.8055843 2 3 5.8055843 3 10.5 L 3 20 C 3 21.107995 4.115007 22 5.5 22 L 17.5 22 C 18.884995 22 20 21.107995 20 20 L 20 10.5 C 20 5.8055843 16.194415 2 11.5 2 z M 11.5 4 C 15.083906 4 18 6.9160921 18 10.5 L 18 11.5 C 18 11.776142 17.776142 12 17.5 12 C 17.223858 12 17 11.776142 17 11.5 L 17 10.5 C 17 7.4565305 14.543469 5 11.5 5 C 10.753521 5 10.044412 5.1494961 9.3964844 5.4179688 C 9.1408371 5.5242211 8.8475147 5.4025145 8.7421875 5.1464844 C 8.6359351 4.8908371 8.7576417 4.5975147 9.0136719 4.4921875 C 9.7797952 4.1747407 10.620577 4 11.5 4 z M 11.5 7 C 13.427064 7 15 8.5729352 15 10.5 L 15 15.5 C 15 16.494513 15.02043 16.912051 15.220703 17.308594 C 15.420974 17.705132 15.88525 18.190481 16.851562 19.144531 C 17.047857 19.338704 17.049613 19.655233 16.855469 19.851562 C 16.661296 20.047857 16.344767 20.049613 16.148438 19.855469 C 15.180546 18.899862 14.644301 18.385801 14.328125 17.759766 C 14.01195 17.133726 14 16.505477 14 15.5 L 14 10.5 C 14 9.1133729 12.886629 8 11.5 8 C 10.113371 8 9 9.1133729 9 10.5 L 9 11.5 C 9 11.776142 8.7761421 12 8.5 12 C 8.2238579 12 8 11.776142 8 11.5 L 8 10.5 C 8 8.5729353 9.5729353 7 11.5 7 z M 6.1640625 7.2207031 C 6.2515574 7.2171931 6.33844 7.2367268 6.4160156 7.2773438 C 6.661146 7.4054813 6.7556663 7.7082964 6.6269531 7.953125 C 6.2275386 8.7155211 6 9.5790298 6 10.5 L 6 16.5 C 6 16.776142 5.7761421 17 5.5 17 C 5.2238579 17 5 16.776142 5 16.5 L 5 10.5 C 5 9.4141656 5.268746 8.3882507 5.7402344 7.4882812 C 5.8233763 7.3296046 5.9850537 7.2275318 6.1640625 7.2207031 z M 11.5 10 C 11.776142 10 12 10.223858 12 10.5 L 12 15.521484 L 11.998047 15.544922 C 11.862732 17.058462 12.005547 18.298497 12.853516 19.146484 C 13.048727 19.341738 13.048727 19.658262 12.853516 19.853516 C 12.658262 20.048727 12.341738 20.048727 12.146484 19.853516 C 11.000461 18.707513 10.858335 17.098017 11 15.480469 L 11 10.5 C 11 10.223858 11.223858 10 11.5 10 z M 17.474609 13 C 17.483155 12.99957 17.491344 13 17.5 13 C 17.777 13 18 13.223 18 13.5 L 18 14.5 C 18 14.777 17.777 15 17.5 15 C 17.223 15 17 14.777 17 14.5 L 17 13.5 C 17 13.231657 17.209695 13.013342 17.474609 13 z M 8.5 14 C 8.7761421 14 9 14.223858 9 14.5 L 9 19.5 C 9 19.776142 8.7761421 20 8.5 20 C 8.2238579 20 8 19.776142 8 19.5 L 8 14.5 C 8 14.223858 8.2238579 14 8.5 14 z " />
</svg>

<svg height="24" width="24" xmlns="http://www.w3.org/2000/svg"><path style="fill:gray;stroke-width:2;stroke-linecap:square;stroke-linejoin:round" d="M11.5 2A8.5 8.5 0 0 0 3 10.5V20c0 1.108 1.115 2 2.5 2h12c1.385 0 2.5-.892 2.5-2v-9.5A8.5 8.5 0 0 0 11.5 2zm0 2c3.584 0 6.5 2.916 6.5 6.5v1a.5.5 0 0 1-1 0v-1C17 7.457 14.543 5 11.5 5c-.746 0-1.456.15-2.104.418a.5.5 0 1 1-.382-.926A6.484 6.484 0 0 1 11.5 4zm0 3c1.927 0 3.5 1.573 3.5 3.5v5c0 .995.02 1.412.22 1.809.201.396.665.881 1.632 1.836a.5.5 0 0 1-.704.71c-.967-.955-1.504-1.47-1.82-2.095-.316-.626-.328-1.255-.328-2.26v-5C14 9.113 12.887 8 11.5 8A2.492 2.492 0 0 0 9 10.5v1a.5.5 0 0 1-1 0v-1C8 8.573 9.573 7 11.5 7zm-5.336.22a.5.5 0 0 1 .463.733A5.465 5.465 0 0 0 6 10.5v6a.5.5 0 0 1-1 0v-6c0-1.086.269-2.112.74-3.012a.5.5 0 0 1 .424-.267zM11.5 10a.5.5 0 0 1 .5.5v5.021l-.002.024c-.135 1.513.008 2.753.856 3.601a.5.5 0 0 1-.708.708C11 18.708 10.858 17.098 11 15.48V10.5a.5.5 0 0 1 .5-.5zm5.975 3h.025c.277 0 .5.223.5.5v1a.499.499 0 1 1-1 0v-1a.5.5 0 0 1 .475-.5zM8.5 14a.5.5 0 0 1 .5.5v5a.5.5 0 0 1-1 0v-5a.5.5 0 0 1 .5-.5z"/></svg>
